qml/images/icon-app.svg

<?xml version="1.0" encoding="UTF-8" standalone="no"?>
<svg
   xmlns:svg="http://www.w3.org/2000/svg"
   xmlns="http://www.w3.org/2000/svg"
   xmlns:sodipodi="http://sodipodi.sourceforge.net/DTD/sodipodi-0.dtd"
   xmlns:inkscape="http://www.inkscape.org/namespaces/inkscape"
   version="1.1"
   width="64"
   height="64"
   viewBox="0 0 64 64"
   xml:space="preserve"
   sodipodi:docname="icon-app.svg"
   inkscape:version="0.92.4 (unknown)">
    <rect
        style="opacity:0;fill:#ffffff"
        width="64"
        height="64"
        x="0"
        y="0"/>
  <path
      inkscape:connector-curvature="0"
      style="opacity:0.4;fill:#ffffff;fill-opacity:1;stroke-width:0.53488374"
      d="m 39.928109,11.972591 -2.097656,0.53711 c -0.591046,0.151907 -14.476562,3.838026 -14.476562,14.232421 0,3.023697 2.148887,5.23865 4.228515,7.38086 0.05532,0.05701 0.105059,0.113092 0.160157,0.169922 L 27.641,34.316344 c 0.73707,3.10714 -0.20868,6.87589 -2.470703,9.835937 -1.47307,1.927186 -3.361883,3.321541 -5.501953,4.097657 -1.189582,0.258884 -2.449228,0.495914 -3.777344,0.710938 L 16.019906,50.289 c 1.33293,-0.04386 2.620147,-0.275291 3.835938,-0.685546 6.534139,-1.367698 16.736328,-4.676738 16.736328,-13.542969 0,-2.432004 -1.406626,-4.060165 -3.005859,-5.529297 1.815924,-2.945364 7.928194,-5.19635 7.986328,-5.21875 l 5.888672,-2.101562 c 1.657069,-0.527931 2.806834,-0.997553 2.888671,-1.03125 l -0.480468,-1.248047 -2.767579,0.988281 c -1.221139,0.391 -2.729625,0.815724 -4.263671,1.109375 -3.215721,0.611372 -5.526363,-2.367066 -5.548829,-2.396485 l -0.292968,-0.386718 -0.458985,0.160156 c -0.02867,0.01 -0.336814,0.135558 -0.503906,0.199219 0.338604,-4.535842 2.443199,-6.876764 2.464844,-6.902344 z"
      sodipodi:nodetypes="ccsccccccccsccccccccccccc"/>
  <g
      transform="matrix(0.53488372,0,0,0.53488372,9,9)">
    <linearGradient
        id="SVGID_1_"
        gradientUnits="userSpaceOnUse"
        x1="0.71689999"
        y1="85.283096"
        x2="85.283096"
        y2="0.71689999">
      <stop
          offset="0"
          style="stop-color:#cbcbcb"/>
      <stop
          offset="1"
          style="stop-color:#ffffff"/>
    </linearGradient>
    <path
        style="opacity:0.8;fill:none;stroke-width:3.73913044;stroke-miterlimit:4;stroke-dasharray:none;stroke:#ffffff;stroke-opacity:1"
        d="M 84.277,0.3 H 43 C 19.417,0.3 0.3,19.418 0.3,43 v 41.277 c 0,0.786 0.637,1.423 1.423,1.423 H 43 C 66.583,85.7 85.7,66.582 85.7,43 V 1.723 C 85.7,0.937 85.063,0.3 84.277,0.3 Z"
        inkscape:connector-curvature="0"/>
    <path
        style="fill:#ffffff;stroke-width:0.53488374"
        d="M 39.927734 11.972656 L 37.830078 12.509766 C 37.239032 12.661673 23.353516 16.347792 23.353516 26.742188 C 23.353516 29.765885 25.502403 31.980838 27.582031 34.123047 C 27.637356 34.180054 27.68709 34.23614 27.742188 34.292969 L 27.640625 34.316406 C 28.377695 37.423546 27.431945 41.192297 25.169922 44.152344 C 23.696852 46.07953 21.808039 47.473884 19.667969 48.25 C 18.478387 48.508884 17.218741 48.745914 15.890625 48.960938 L 16.019531 50.289062 C 17.352461 50.245202 18.639678 50.013771 19.855469 49.603516 C 26.389608 48.235818 36.591797 44.926779 36.591797 36.060547 C 36.591797 33.628543 35.185171 32.000383 33.585938 30.53125 C 35.401862 27.585887 41.514132 25.3349 41.572266 25.3125 L 47.460938 23.210938 C 49.118007 22.683007 50.267772 22.213385 50.349609 22.179688 L 49.869141 20.931641 L 47.101562 21.919922 C 45.880423 22.310922 44.371937 22.735646 42.837891 23.029297 C 39.62217 23.640669 37.311528 20.662231 37.289062 20.632812 L 36.996094 20.246094 L 36.537109 20.40625 C 36.508443 20.416207 36.200295 20.541808 36.033203 20.605469 C 36.371807 16.069627 38.476402 13.728705 38.498047 13.703125 L 39.927734 11.972656 z M 36.396484 14.480469 C 35.64196 15.880938 34.769548 17.858704 34.666016 21.197266 C 32.990108 21.992378 30.588893 23.377754 29.068359 25.34375 C 28.880825 24.803778 28.769531 24.22101 28.769531 23.572266 C 28.769531 19.111854 32.561092 16.352293 33.552734 15.699219 C 34.614247 15.185476 35.615293 14.765411 36.396484 14.480469 z M 28.826172 18.712891 C 28.022997 20.053826 27.431641 21.678538 27.431641 23.572266 C 27.431641 26.898173 29.702822 28.883021 31.707031 30.634766 C 33.530985 32.228719 35.253906 33.733268 35.253906 36.060547 C 35.253906 38.976772 33.995561 41.428054 31.466797 43.439453 C 32.080177 42.446226 32.511872 41.290127 32.511719 39.976562 C 32.511719 37.29519 30.492806 35.22796 28.541016 33.216797 C 26.559806 31.175681 24.689453 29.274294 24.689453 26.792969 C 24.689453 23.332999 26.52016 20.687617 28.826172 18.712891 z M 36.552734 21.830078 C 37.160897 22.496008 38.570042 23.817668 40.523438 24.285156 C 38.890883 24.943998 34.400942 26.944031 32.585938 29.625 C 31.509431 28.684522 30.478788 27.765637 29.755859 26.685547 C 31.419412 24.046044 35.271699 22.339475 36.552734 21.830078 z M 29.185547 35.841797 C 30.322813 37.150935 31.175781 38.473855 31.175781 39.962891 C 31.175781 43.648705 26.773208 46.074409 26.560547 46.189453 C 25.858668 46.474416 25.124151 46.747475 24.335938 47.003906 C 25.020589 46.401092 25.655282 45.7201 26.232422 44.964844 C 28.307557 42.248916 29.356114 38.89864 29.185547 35.841797 z "
          transform="matrix(1.8695652,0,0,1.8695652,-16.826087,-16.826087)"/>
  </g>
</svg>

<?xml version="1.0" encoding="UTF-8" standalone="no"?>
<svg version="1.1" viewBox="0 0 64 64" xmlns="http://www.w3.org/2000/svg">
  <g style="fill:#ffffff">
    <rect style="opacity:0" width="64" height="64"/>
    <path style="opacity:0.8;fill:none;stroke:#ffffff;stroke-width:2" d="M 32,9.16 C 19.38,9.16 9.16,19.38 9.16,32 v 22.08 c 0,0.42 0.34,0.76 0.76,0.76 H 32 C 44.61,54.84 54.84,44.61 54.84,32 V 9.92 c 0,-0.42 -0.34,-0.76 -0.76,-0.76 0,0 -14.72,0 -22.08,0 z"/>
    <path style="opacity:0.4" d="m 39.93,11.97 -2.1,0.537 c -0.59,0.15 -14.476,3.84 -14.476,14.23 0,3.02 2.15,5.24 4.23,7.38 l 0.06,0.193 c 0.74,3.11 -0.21,6.876 -2.47,9.836 -1.47,1.93 -3.36,3.32 -5.5,4.1 0,0 -3.78,0.71 -3.78,0.71 l 0.13,1.33 3.836,-0.685 c 6.534,-1.368 16.736,-4.677 16.736,-13.543 0,-2.432 -1.4,-4.06 -3,-5.53 1.816,-2.945 7.986,-5.22 7.986,-5.22 l 5.89,-2.1 c 1.66,-0.53 2.89,-1.03 2.89,-1.03 l -0.48,-1.25 -2.77,0.99 c -1.22,0.39 -2.73,0.816 -4.26,1.11 -3.216,0.61 -5.55,-2.396 -5.55,-2.4 l -0.29,-0.39 -0.96,0.36 c 0.34,-4.536 2.465,-6.9 2.465,-6.9 z"/>
    <path d="m 39.93,11.97 -2.1,0.537 c -0.59,0.15 -14.476,3.84 -14.476,14.23 0,3.02 2.15,5.24 4.23,7.38 l 0.06,0.193 c 0.74,3.11 -0.21,6.876 -2.47,9.836 -1.47,1.93 -3.36,3.32 -5.5,4.1 -0.0057,0.0039 -3.78,0.71 -3.78,0.71 l 0.13,1.33 3.836,-0.685 c 6.534,-1.368 16.736,-4.677 16.736,-13.543 0,-2.432 -1.4,-4.06 -3,-5.53 1.816,-2.945 7.986,-5.22 7.986,-5.22 l 5.89,-2.1 c 1.66,-0.53 2.89,-1.03 2.89,-1.03 l -0.48,-1.25 -2.77,0.99 c -1.22,0.39 -2.73,0.816 -4.26,1.11 -3.216,0.61 -5.55,-2.396 -5.55,-2.4 l -0.29,-0.39 -0.96,0.36 c 0.34,-4.536 2.465,-6.9 2.465,-6.9 z m -3.531,2.51 c -0.754,1.4 -1.627,3.378 -1.73,6.717 -1.676,0.795 -4.08,2.18 -5.6,4.146 -0.188,-0.54 -0.3,-1.12 -0.3,-1.77 0,-4.46 3.79,-7.22 4.78,-7.87 1.06,-0.51 2.06,-0.93 2.84,-1.22 z m -7.57,4.23 c -0.8,1.34 -1.39,2.966 -1.395,4.86 0,3.326 2.27,5.31 4.275,7.06 1.824,1.594 3.547,3.1 3.547,5.426 0,2.916 -1.26,5.38 -3.79,7.38 0.61,-0.99 1.045,-2.15 1.045,-3.46 0,-2.68 -2.02,-4.75 -3.97,-6.76 -1.98,-2.04 -3.85,-3.94 -3.85,-6.42 0,-3.46 1.83,-6.105 4.137,-8.08 z m 7.726,3.115 c 0.61,0.666 2.02,1.99 3.97,2.455 -1.63,0.66 -6.12,2.66 -7.94,5.34 -5.07,-3.575 -0.33,-6.06 3.97,-7.795 z m -7.37,14 c 1.137266,1.31 1.99,2.63 1.99,4.12 0,3.686 -4.4,6.11 -4.615,6.226 -0.7,0.285 -2.225,0.814 -2.225,0.814 0,0 1.32,-1.28 1.896,-2.04 2.075,-2.716 3.12,-6.07 2.95,-9.12 z"/>
  </g>
</svg>
